X: 3289
T: MY TOCHER'S THE JEWEL
%R: jig
B: James Kerr "Merry Melodies" v.3 p.31 #289
Z: 2016 John Chambers <jc:trillian.mit.edu>
M: 6/8
L: 1/8
K: A
e |\
cAA A2G | Acd eag | edc e2d | cGG G2e |\
cAA A2G | Acd eag | ega ged | cAA A2 :|
|: g |\
gag gec | deg a2a | ged ced | BGG G2e |\
ABA ABA | Acd eag | ega ged | cAA A2 :|

%%sep 1 1 500
%%sep 1 1 500

